svgs/solid/comment-music.svg

<svg xmlns="http://www.w3.org/2000/svg" viewBox="0 0 512 512"><!-- Font Awesome Pro 6.0.0-alpha2 by @fontawesome - https://fontawesome.com License - https://fontawesome.com/license (Commercial License) --><path d="M256 32C114.594 32 0 125.094 0 240C0 289.594 21.406 335 57 370.703C44.5 421.094 2.688 466 2.188 466.5C0 468.797 -0.594 472.203 0.688 475.203C2 478.203 4.812 480 8 480C74.312 480 124 448.203 148.594 428.594C181.312 440.906 217.594 448 256 448C397.406 448 512 354.906 512 240S397.406 32 256 32ZM352 287.959C352 305.584 330.5 319.959 304 319.959S256 305.584 256 287.959S277.5 255.959 304 255.959C309.375 255.959 314.75 256.709 320 257.959V181.584L224 219.084V319.959C224 337.584 202.5 351.959 176 351.959S128 337.584 128 319.959S149.5 287.959 176 287.959C181.375 287.959 186.75 288.709 192 289.959V175.209C192 168.209 196.5 162.084 203.25 159.959L331.25 112.709C336 111.209 341.375 112.084 345.5 115.084S352 122.834 352 127.959V287.959Z"/></svg>

<svg xmlns="http://www.w3.org/2000/svg" viewBox="0 0 512 512"><!-- Font Awesome Pro 5.15.1 by @fontawesome - https://fontawesome.com License - https://fontawesome.com/license (Commercial License) --><path d="M256 32C114.59 32 0 125.09 0 240c0 49.59 21.41 95 57 130.7C44.5 421.09 2.69 466 2.19 466.5a8 8 0 0 0-1.5 8.7A7.87 7.87 0 0 0 8 480c66.31 0 116-31.8 140.59-51.41A304.63 304.63 0 0 0 256 448c141.41 0 256-93.09 256-208S397.41 32 256 32zm96 256c0 17.67-21.5 32-48 32s-48-14.33-48-32 21.5-32 48-32a69.89 69.89 0 0 1 16 2v-76.36l-96 37.52V320c0 17.67-21.5 32-48 32s-48-14.33-48-32 21.5-32 48-32a69.89 69.89 0 0 1 16 2V175.25A16 16 0 0 1 203.19 160l128-47.25A16 16 0 0 1 352 128z"/></svg>
